X: 1
T: Vals efter Vilholm Hedlund
C:
R: waltz
S: https://app.box.com/s/u6iiren0igvsukrhdducy7orq72jayq8/file/904572384455 (Bruce Sagan) 2022-07-17
Z: 2022 John Chambers <jc:trillian.mit.edu>
M: 3/4
L: 1/8
K: Dm
"^A"[|]A2 \
| f>g fe fa | e>f ed eg | f2 e2 d2 | A4 A2 |
| A>=B A^G AB | c>d c=B cd | e2 E2 ^G2 | A4 :|
"^B"|: A2 \
| a>b ag fe | d2 B2 B2 | g>a gf ed | ^c2 A2 A2 |
| D>E FG AB | A2 d2 d2 | ^c2 Ac ec | d4 :|
"^C"|: A2 \
| A>B AG EG | F2 DF Ac | =B2 E^G Bd | ^c2 Ac d2 |
| A>B AG EG | F2 DF Ad | ^c2 Ac ec | d4 :|
